svg/frigate.svg

<svg xmlns="http://www.w3.org/2000/svg" width="512" height="512" fill="none" viewBox="0 0 512 512"><path fill="#000" d="M130 446.5c1.6 12.8 15 21.5 7 23.5s-43-63.5-51-91.5S73.5 319 75.5 301 181 255 181 247.5s-33.5-.5-35-6.5 25.3-2.4 32.5-12c11.25-15 25.5-12.5 34.5-20.5s20-38.5 22-51.5-20-28-26-38 13-17 59-36 192-61 194-56-48 26-83 39-92 38-92 45 3 12.5 1 28.5-2.24 23.471-6 34c-2.5 7-5 23.5 0 38.5 4 12 17 21 23 23 5 .333 18.8.8 34 0 19-1 46 1 46 6s-41 2-41 9 42-1 41 6-35 4-53 4c-14.4 0-35.667-.667-45-4l-2 7c-3.333 0-10.3 2-17.5 2-9 0-9.5 3-26 3s-11.5-1-26.5-2-71 42-81 56-4 48-4 63.5c0 13.928-2 45 0 61"/></svg>

<svg xmlns="http://www.w3.org/2000/svg" width="512" height="512" fill="none" viewBox="0 0 512 512"><path fill="#000" d="M130 446.5C131.6 459.3 145 468 137 470C129 472 94 406.5 86 378.5C78 350.5 73.5 319 75.5 301C77.4999 283 181 255 181 247.5C181 240 147.5 247 146 241C144.5 235 171.3 238.6 178.5 229C189.75 214 204 216.5 213 208.5C222 200.5 233 170 235 157C237 144 215 129 209 119C203 109 222 102 268 83C314 64 460 22 462 27C464 32 414 53 379 66C344 79 287 104 287 111C287 118 290 123.5 288 139.5C286 155.5 285.76 162.971 282 173.5C279.5 180.5 277 197 282 212C286 224 299 233 305 235C310 235.333 323.8 235.8 339 235C358 234 385 236 385 241C385 246 344 243 344 250C344 257 386 249 385 256C384 263 350 260 332 260C317.6 260 296.333 259.333 287 256L285 263C281.667 263 274.7 265 267.5 265C258.5 265 258 268 241.5 268C225 268 230 267 215 266C200 265 144 308 134 322C124 336 130 370 130 385.5C130 399.428 128 430.5 130 446.5Z"/></svg>
